.local/share/icons/Gruvbox-Plus-Dark/apps/16/hulu.svg

<svg width="16" height="16" version="1.1" xmlns="http://www.w3.org/2000/svg">
  <defs>
    <style id="current-color-scheme" type="text/css">.ColorScheme-Text { color:#ebdbb2; } .ColorScheme-Highlight { color:#458588; }</style>
  </defs>
  <path class="ColorScheme-Text" d="m0 5.354v5.292h1.271v-2.146c3e-3 -0.087 0.041-0.169 0.104-0.229 0.067-0.065 0.156-0.102 0.25-0.104h0.729c0.089 0 0.161 0.044 0.229 0.104s0.097 0.141 0.104 0.229v2.146h1.272v-2.312c0-0.318-0.063-0.57-0.188-0.771-0.128-0.188-0.31-0.333-0.521-0.417-0.229-0.102-0.478-0.152-0.729-0.146h-0.834l-0.312 0.042c-0.073 0.02-0.104 0.042-0.104 0.042v-1.73h-1.271zm9.792 0v5.292h1.271v-5.292h-1.271zm-4.918 1.646v2.25c0 0.297 0.047 0.542 0.167 0.75 0.12 0.209 0.305 0.376 0.521 0.48 0.222 0.104 0.454 0.166 0.75 0.166h1.25v-0.02c0.266 0 0.503-0.056 0.688-0.167 0.184-0.12 0.333-0.292 0.437-0.5 0.097-0.209 0.138-0.443 0.146-0.709v-2.25h-1.271v2.126c-6e-3 0.092-0.043 0.179-0.104 0.249-0.061 0.061-0.143 0.098-0.229 0.105h-0.749c-0.087-5e-3 -0.169-0.042-0.23-0.104-0.064-0.068-0.101-0.157-0.104-0.251v-2.125h-1.272zm7.167 0v2.25c8e-3 0.297 0.063 0.542 0.188 0.75 0.125 0.209 0.287 0.376 0.5 0.48 0.222 0.104 0.461 0.166 0.75 0.166h1.25v-0.02c0.266 0 0.495-0.056 0.688-0.167 0.184-0.12 0.341-0.292 0.437-0.5 0.102-0.207 0.146-0.443 0.146-0.709v-2.25h-1.271v2.126c-3e-3 0.093-0.04 0.182-0.104 0.249-0.061 0.062-0.143 0.099-0.229 0.105h-0.75c-0.087-4e-3 -0.17-0.041-0.229-0.104-0.065-0.068-0.102-0.157-0.104-0.251v-2.125h-1.272z" fill="currentColor"/>
</svg>

<svg xmlns="http://www.w3.org/2000/svg" style="isolation:isolate" width="16" height="16" viewBox="0 0 16 16">
 <defs>
  <style id="current-color-scheme" type="text/css">
   .ColorScheme-Text { color:#ebdbb2; } .ColorScheme-Highlight { color:#458588; }
  </style>
  <linearGradient id="arrongin" x1="0%" x2="0%" y1="0%" y2="100%">
   <stop offset="0%" style="stop-color:#d79921; stop-opacity:1"/>
   <stop offset="100%" style="stop-color:#b57614; stop-opacity:1"/>
  </linearGradient>
  <linearGradient id="aurora" x1="0%" x2="0%" y1="0%" y2="100%">
   <stop offset="0%" style="stop-color:#83a598; stop-opacity:1"/>
   <stop offset="100%" style="stop-color:#b16286; stop-opacity:1"/>
  </linearGradient>
  <linearGradient id="fitdance" x1="0%" x2="0%" y1="0%" y2="100%">
   <stop offset="0%" style="stop-color:#8ec07c; stop-opacity:1"/>
   <stop offset="100%" style="stop-color:#458588; stop-opacity:1"/>
  </linearGradient>
  <linearGradient id="oomox" x1="0%" x2="0%" y1="0%" y2="100%">
   <stop offset="0%" style="stop-color:#458588; stop-opacity:1"/>
   <stop offset="100%" style="stop-color:#928374; stop-opacity:1"/>
  </linearGradient>
  <linearGradient id="rainblue" x1="0%" x2="0%" y1="0%" y2="100%">
   <stop offset="0%" style="stop-color:#b8bb26; stop-opacity:1"/>
   <stop offset="100%" style="stop-color:#076678; stop-opacity:1"/>
  </linearGradient>
  <linearGradient id="sunrise" x1="0%" x2="0%" y1="0%" y2="100%">
   <stop offset="0%" style="stop-color: #fe8019; stop-opacity:1"/>
   <stop offset="100%" style="stop-color: #fabd2f; stop-opacity:1"/>
  </linearGradient>
  <linearGradient id="telinkrin" x1="0%" x2="0%" y1="0%" y2="100%">
   <stop offset="0%" style="stop-color: #83a598; stop-opacity:1"/>
   <stop offset="100%" style="stop-color: #83a598; stop-opacity:1"/>
  </linearGradient>
  <linearGradient id="60spsycho" x1="0%" x2="0%" y1="0%" y2="100%">
   <stop offset="0%" style="stop-color: #fb4934; stop-opacity:1"/>
   <stop offset="25%" style="stop-color: #fabd2f; stop-opacity:1"/>
   <stop offset="50%" style="stop-color: #fe8019; stop-opacity:1"/>
   <stop offset="100%" style="stop-color: #689d6a; stop-opacity:1"/>
  </linearGradient>
  <linearGradient id="90ssummer" x1="0%" x2="0%" y1="0%" y2="100%">
   <stop offset="0%" style="stop-color: #b16286; stop-opacity:1"/>
   <stop offset="20%" style="stop-color: #8ec07c; stop-opacity:1"/>
   <stop offset="50%" style="stop-color: #fabd2f; stop-opacity:1"/>
   <stop offset="100%" style="stop-color: #458588; stop-opacity:1"/>
  </linearGradient>
  <linearGradient id="cyberneon" x1="0%" x2="0%" y1="0%" y2="100%">
    <stop offset="0" style="stop-color:#83a598; stop-opacity:1"/>
    <stop offset="1" style="stop-color:#b16286; stop-opacity:1"/>
  </linearGradient>
 </defs>
 <path style="fill:currentColor" class="ColorScheme-Text" d="M 0 5.354 L 0 10.646 L 1.271 10.646 L 1.271 8.5 C 1.274 8.413 1.312 8.331 1.375 8.271 C 1.442 8.206 1.531 8.169 1.625 8.167 L 2.354 8.167 C 2.443 8.167 2.515 8.211 2.583 8.271 C 2.651 8.331 2.68 8.412 2.687 8.5 L 2.687 10.646 L 3.959 10.646 L 3.959 8.334 C 3.959 8.016 3.896 7.764 3.771 7.563 C 3.643 7.375 3.461 7.23 3.25 7.146 C 3.021 7.044 2.772 6.994 2.521 7 L 1.687 7 L 1.375 7.042 C 1.302 7.062 1.271 7.084 1.271 7.084 L 1.271 5.354 L 0 5.354 Z M 9.792 5.354 L 9.792 10.646 L 11.063 10.646 L 11.063 5.354 L 9.792 5.354 Z M 4.874 7 L 4.874 9.25 C 4.874 9.547 4.921 9.792 5.041 10 C 5.161 10.209 5.346 10.376 5.562 10.48 C 5.784 10.584 6.016 10.646 6.312 10.646 L 7.562 10.646 L 7.562 10.626 C 7.828 10.626 8.065 10.57 8.25 10.459 C 8.434 10.339 8.583 10.167 8.687 9.959 C 8.784 9.75 8.825 9.516 8.833 9.25 L 8.833 7 L 7.562 7 L 7.562 9.126 C 7.556 9.218 7.519 9.305 7.458 9.375 C 7.397 9.436 7.315 9.473 7.229 9.48 L 6.48 9.48 C 6.393 9.475 6.311 9.438 6.25 9.376 C 6.186 9.308 6.149 9.219 6.146 9.125 L 6.146 7 L 4.874 7 Z M 12.041 7 L 12.041 9.25 C 12.049 9.547 12.104 9.792 12.229 10 C 12.354 10.209 12.516 10.376 12.729 10.48 C 12.951 10.584 13.19 10.646 13.479 10.646 L 14.729 10.646 L 14.729 10.626 C 14.995 10.626 15.224 10.57 15.417 10.459 C 15.601 10.339 15.758 10.167 15.854 9.959 C 15.956 9.752 16 9.516 16 9.25 L 16 7 L 14.729 7 L 14.729 9.126 C 14.726 9.219 14.689 9.308 14.625 9.375 C 14.564 9.437 14.482 9.474 14.396 9.48 L 13.646 9.48 C 13.559 9.476 13.476 9.439 13.417 9.376 C 13.352 9.308 13.315 9.219 13.313 9.125 L 13.313 7 L 12.041 7 Z"/>
</svg>
